X: 1
T: Garech's Wedding
R: slip jig
M: 9/8
L: 1/8
K: Emin
B|:~E3 e2B G2B|A2A A2G A2B|~E3 G2B e2f|1gfe fed B2e:|2gfe fed e2f||
g2B BAB g2e|f2A AGA f2a|g2B BAB g2e|fdd add fga|
g2B BAB g2e|f2A AGA f2a|gfe fed efg|BcB AGF E2||


Tune 2620	Setting 15874

